X:81
T:T050- Paddy Whack
S:Brysson's Curious Collection (1791)
Q:1/4=120
L:1/8
M:6/8
K:D
D|DFA dcd|BAG FGE|DFA dBe|cAA A2=c|BGB Bcd|\
AFD E2D|DEF GEA|FDDD2::A|FAF GBG|AFDE2D|\
FGA Bcd|cAAA2=c|BGB Bcd|AFDE2D|DEF GEA|FDDD2:|]

